X:1
T:Title
%%score ( 1 2 ) { 3 | 4 }
L:1/8
Q:1/4=95
M:4/4
K:F
V:1 treble nm="Grand Piano, Soprano"
V:2 treble 
V:3 bass nm="Choir Pad, At the Battle�s Front"
V:4 bass 
V:1
 [FA][FB] [Fc]2 [CF]>[CF] [CF]2 | [FB][FA][DG][B,D] [B,D]>[B,D] [B,D]2 | %2
w: By~Lelia~Naylor~Morris * * * * *||
 [DG][DA] [DB]2 [CE]>[CE] [CE]2 | [CF][EG][FA][CF] [CF][B,D] [A,C]2 | %4
w: ||
 [FA][GB] [Ac]2 [CF]>[CF] [CF]2 | [FB][FA][FG][Fd] [Fd][Fd] [Fd]2 | %6
w: ||
 [GB][DG] [CF]2 [Ac]>[Bd] [Ac][FA] | [CF][FA] [EG]4 [CF]2 | [Ac]>[GB] [FA]2 [FA]2 .[FA]>[FG] | %9
w: |||
 F>[Bd] [Ac]4 [FA]>[Ac] | [Bd]>[Ac] [GB]2 [EG]3 z/ [Bd]/ | [ce]>[Bd] [Ac]2 [FA]4 | %12
w: |||
 [Ac]>[GB] [FA]2 [FA]2 [FA]>[FG] | F>[Bd] [Ac]4 [FA]2 | [Af]>[Af] [Ge]2 [Gd]2 [Gc]2 | %15
w: |||
 [G=B]2 [Gc]4- [Gc]>[G_B] | [FA]>[GB] [Ac]2 [Ac]3 z/ [FA]/ | [GB]>[Ac] [Bd]2 [Bd]4 | %18
w: |||
 [GB]>[FA] [FG]2 [EG][FA] [GB]>[Bd] | [Ac]>[GB] [FA]2- [FA]>d [Fc]>[GB] | %20
w: ||
 [FA]>[GB] [Ac]2 [Ac]3 z/ [FA]/ | [GB]>[Ac] [Bd]2 [df]4 | [df]>[Bd] [Ac]2 [Ac]>[Bd] [Ac][FA] | %23
w: |||
 F[FA] G2- [CG]2 [CF]2- | [CF]6 z2 |] %25
w: ||
V:2
 x8 | x8 | x8 | x8 | x8 | x8 | x8 | x8 | x8 | x8 | x8 | x8 | x8 | x8 | x8 | x8 | x8 | x8 | x8 | %19
 x8 | x8 | x8 | x8 | z2 E2 z4 | x8 |] %25
V:3
 F,G, A,2 A,>A, A,2 | DCB,F, F,>F, F,2 | F,^F, G,2 G,>G, G,2 | A,B,CA, A,F, F,2 | CC F2 A,>A, A,2 | %5
 DCD[K:bass]B, B,B, B,2 | DB, A,2[K:treble] C>C CC | A,C C2 B,2 A,2 | z2 C2 C2 .C2 | z2 C2 C2 .C2 | %10
 z2 C2 C2 .C2 | z2 C2 C2 .C2 | z2 C2 C2 .C2 | z2 C2 C2 .C2 | C>C C2 F2 E2 | DF E6 | z2 C2 C2 .C2 | %17
 z2 D2 D2 .D2 | D>C C2 C2 C>C | C>C C2- C>B, A,2 | z2 C2 C2 .C2 | z2[K:bass] B,2 F,2 .B,2 | %22
 B,>F, F,2[K:treble] C>C CC | A,C[K:bass] B,4 A,2- | A,6 z2 |] %25
V:4
 z F, F,2 F,>F, F,2 | F,F,B,,B,, B,,>B,, B,,2 | B,,A,, G,,2 C,>C, C,2 | C,C,F,F, .F,2 z2 | %4
 F,F, F,2 F,>F, F,2 | F,F,B,G, G,G, G,2 | B,,B,, C,2 C,>C, C,C, | C,C, C,4 F,2 | z2 F,2 C,2 .F,2 | %9
 z2 F,2 C,2 .F,2 | z2 E,2 C,2 .E,2 | z2 F,2 C,2 .F,2 | z2 F,2 C,2 .F,2 | z2 F,2 C,2 .F,2 | %14
 F,>F, G,2 G,2 G,2 | G,2 C,2 C>D CB, | A,G, F,2 C,2 .F,2 | z2 G,2 D,2 .G,2 | G,>A, B,2 C,2 C,>C, | %19
 C,>C, F,4 F,2 | z2 F,2 C,2 .F,2 | z2 B,,2 B,,2 .B,,2 | B,,>B,, C,2 C,>C, C,C, | C,C, C,4 F,2- | %24
 F,6 z2 |] %25

